X:1
T:Rusper, 76.76 D
T:Rusper, 76.76 D
T:English Traditional Melody
T:Public Domain Courtesy of the Cyber Hymnal™
C:English Traditional Melody
Z:Public Domain
Z:Courtesy of the Cyber Hymnal™
%%score ( 1 2 ) ( 3 4 )
L:1/8
Q:1/4=95
M:3/4
K:Eb
V:1 treble 
V:2 treble 
V:3 bass 
V:4 bass 
V:1
 EF | [EG]E [B,B]2 GE | G>F [CE]3 B, | [B,E][B,E] [CG]2 [_DE]2 | [Cc]4 [Dc]2 | %5
 [EB][EG] [B,G]2 [DF][CE] | GF [CE]2 z B, | [B,E][EG] [EB]2 F>G | E4 [DB]2 | [Ee]>[Ed] B3 [FB] | %10
 e3/2 z/ d/ [FB]2 [DF]>[EG] | [FA]>[FA] [DB]2 G2 | !fermata![Cc]4 [Ec]2 | %13
 [EB][EG] [B,G]2 [B,F][CE] | GF [CE]2 B,2 | [B,E][EG] [EB]2 [CF][DG] | !fermata![B,E]4 |] %17
V:2
 E2 | x E x E2 x | D2 x3/2 B, x3/2 | x6 | x6 | x6 | D2 x2 B, x | x4 ED/ x/ | E4 x2 | x2 D2 E x | %10
 BB x9/2 | x4 E_D | x6 | x6 | D2 x B,2 x | x6 | x4 |] %17
V:3
 G,A, | [E,B,][E,G,] E,2 B,[A,,C] | B,>A, [C,G,]3 [D,F,] | [E,G,][E,G,] [C,E,]2 F,G, | %4
 [A,,A,]4 [F,A,]2 | G,[E,G,] [E,G,]2 [C,G,]2 | [=B,,G,]2 [C,G,]2 z [D,F,] | %7
 [E,G,][E,B,] [G,,B,]2 [A,,C][B,,B,] | [E,G,]4 [F,A,]2 | [G,B,]>[G,B,] B,2 C[A,D] | %10
 [G,E][F,F] [B,D]2 B,2 x/ | [F,C]>[F,C] [G,B,]2 [E,B,]2 | !fermata![A,,A,]4 A,2 | %13
 [G,B,][E,B,] E,2 [D,F,][C,G,] | [=B,,G,]2 [C,G,]2 [D,F,]2 | [E,G,][E,B,] [G,,B,]2 [A,,C][B,,B,] | %16
 !fermata![E,G,]4 |] %17
V:4
 E,2 | x2 G,,3 x | B,,2 x4 | x4 B,,2 | x6 | G, x5 | x6 | x6 | x6 | x2 A,3 x | x4 A,>G, x/ | x6 | %12
 x4 A,2 | x2 E,2 x2 | x6 | x6 | x4 |] %17

